X:3198
T:Kafoozalum
O:england
S:Kevin Briggs
M:4/4
L:1/8
R:Hornpipe
K:A
P:A
cd|"A"e2ed cde2|"E7""G"Bcdc Bcd2|"A"e2ed cde2|"A"ABcA "E7""G"B2"A"A2:|
P:B
AB|"A"cAEA cAc2|"E7"dBGB dBd2|"A"cAEA cAc2|"A"ABcA "E7""G"B2"A"A2:|


